X: 21641
T: DOWN THE BURN, DAVIE
C: James Hook
Q: "Moderate."
P: 2d set.
%R: air, strathspey
B: W. Hamilton "Universal Tune-Book" Vol. 2 Glasgow 1846 p.164 #1
S: http://s3-eu-west-1.amazonaws.com/itma.dl.printmaterial/book_pdfs/hamiltonvol2web.pdf
Z: 2016 John Chambers <jc:trillian.mit.edu>
M: C
L: 1/8
K: D
% - - - - - - - - - - - - - - - - - - - - - - - - -
d>e |\
f>e d>B A<F ED | F>A Ad d3 e |\
f>e f>a A>d g>f | (f2 e2) z2 d>e |\
f>e d>B A<F ED | F<A Ad d3 e |\
f>e f>a Ad f>e |
(e2 d2) z2 f2 |\
e>d e>f B2 zf | e>d e>f B3 c |\
d>e dB Ad g>f | (f2 e2) z2 e2 |\
f>g f<d B>c d2 | g>a g<e c>d e2 |
a>b a<f d>e fd | Ad f>e {e}d2 z2 |\
F>E D2 d>e f2 | G>F E2 e>f g2 |\
A>G F2 f>g ag | f>e f<a d<B AF |\
A>d f>e {e}d2 |]
% - - - - - - - - - - - - - - - - - - - - - - - - -

%%sep 1 1 500
%%sep 1 1 500

